hero_icons/deadlock_logo_inner.svg

<svg width="100" height="100" viewBox="0 0 100 100" fill="none" xmlns="http://www.w3.org/2000/svg">
<path d="M63.3663 66.0554C63.4754 66.1864 63.1916 67.1906 63.4754 67.6054C63.6064 67.8018 64.043 67.8892 64.2613 68.1075C66.0078 69.6574 68.5184 72.5172 70.5923 73.5214C71.2909 73.8488 72.4043 73.958 72.9501 74.4819C73.4522 74.984 73.4958 76.0101 73.9543 76.534C74.1726 76.7959 74.762 76.9051 74.8494 77.1671C75.0895 77.9311 74.6311 77.7128 74.3691 77.9311C70.3304 81.2057 65.986 83.9563 60.9212 85.3971C58.7817 86.0083 55.5071 86.7724 53.3022 86.9689C50.8353 87.1872 51.8176 86.8816 51.9268 85.3316C52.036 83.5852 51.774 81.6859 51.9268 79.9613C52.0141 78.6515 52.5599 77.2762 52.4289 75.9009C52.2543 73.9362 52.3634 73.1721 52.4289 71.3165C52.4508 70.6398 52.2761 67.2343 52.4289 67.1033C52.6036 66.9505 54.1536 66.885 54.5465 66.7977C55.5944 66.5575 57.0353 66.0991 58.0395 65.7061C58.5198 65.5097 59.3712 64.8984 59.7423 64.8329C60.4409 64.7238 61.6634 66.5139 62.5149 66.5139C62.755 66.5139 63.3226 65.9681 63.4099 66.0773L63.3663 66.0554Z" fill="white"/>
<path d="M41.731 66.0107C42.4077 66.6874 44.8746 66.6438 45.857 67.124C46.5993 67.4952 46.2063 68.5648 46.2718 69.2634C46.5993 72.5161 47.5599 77.1878 47.2979 80.2222C47.1669 81.6849 47.8655 83.5405 47.7563 84.763C47.7345 85.0686 47.4289 85.5052 47.3415 85.8763C47.276 86.1819 47.3415 86.9242 47.2979 86.9678C47.0577 87.2298 44.9183 86.5312 44.3725 86.7059C37.2993 85.0904 30.8591 83.0165 25.6197 77.9082C25.2267 77.5371 24.0042 77.2097 24.8556 76.3801C25.3141 75.9435 26.2528 75.4196 26.7549 74.983C29.9422 72.2323 33.1732 69.5036 36.4479 66.8184C37.1028 66.2945 37.845 65.072 38.7401 65.0283C39.1331 65.0283 39.9408 65.4649 40.1155 65.2903C40.2246 65.1811 40.2246 64.3734 40.7704 64.5481C41.3162 64.7009 41.5127 65.8361 41.7091 66.0325L41.731 66.0107ZM32.7803 79.5673C32.7803 79.5673 33.7408 79.873 33.9155 79.8293C34.7887 79.5892 34.0901 78.061 33.1732 78.3012C32.7584 78.4103 32.6711 79.4582 32.8021 79.5673H32.7803Z" fill="white"/>
<path d="M46.5328 30.8445C46.2054 31.1719 44.9173 31.0409 44.437 31.1501C43.2363 31.4339 41.6427 32.067 40.442 32.5036C39.8307 32.7219 39.2849 33.3331 38.5645 33.1148C38.2589 33.0275 37.6039 32.1543 37.2546 31.8705C34.4603 29.4255 30.9891 27.0242 28.4349 24.3609C28.1948 24.0989 28.1074 23.7278 27.8236 23.4658C27.0595 22.7673 25.7715 22.8764 25.4441 21.5229C25.1821 20.4969 25.5532 20.8244 25.8807 20.5406C32.2772 15.3886 38.2152 13.0528 46.4237 12.245C46.6856 12.2232 46.9913 11.9612 47.1877 12.0049C47.7553 12.1141 47.6244 13.6422 47.5807 14.1661C47.2314 18.9906 47.0349 24.0771 46.5765 28.9671C46.5328 29.3818 46.642 30.7572 46.5765 30.8663L46.5328 30.8445Z" fill="white"/>
<path d="M63.1254 14.5503C63.4529 14.2228 65.5268 15.6418 66.0071 15.8819C68.867 17.3227 70.7226 18.96 73.2332 20.379C73.9536 20.7719 74.8487 20.4445 74.2374 21.6888C74.0409 22.1036 72.9712 22.431 72.7092 22.955C72.3381 22.693 73.0804 21.9508 72.8402 21.667C72.8402 21.667 72.229 21.4923 72.2071 21.4923C71.5522 21.4705 68.9106 23.4134 70.024 24.112C70.155 24.1993 71.3994 24.2866 70.7881 24.745C70.7444 24.7669 70.417 24.7669 70.155 24.9852C69.5219 25.4873 69.6747 25.8802 69.4128 26.295C69.1945 26.6006 68.6487 26.4915 68.2557 26.6661C67.055 27.2119 66.4001 28.6308 64.9374 29.2203C64.5226 29.3731 63.824 29.2203 63.6712 29.7442C63.5839 30.0935 63.7367 30.5519 63.5402 30.8794C63.4092 31.054 62.4487 31.5561 62.143 31.7744C61.7937 32.0145 61.0733 33.0406 60.593 32.6476C60.5494 32.6258 61.1606 31.9272 60.4621 31.6216C59.8944 31.3815 59.9599 32.4948 59.829 32.6258C59.5888 32.8878 56.6416 31.6653 56.0085 31.4688C55.2881 31.2505 53.5853 31.0977 53.1923 30.7266C52.7339 30.2899 52.9958 29.1329 52.9303 28.4344C52.4937 23.8718 51.9261 19.2438 51.6423 14.6594C51.6423 14.2447 51.555 12.0616 51.6423 11.9743C51.817 11.7997 52.5156 12.1926 52.7994 12.2144C54.3712 12.3672 55.7466 12.4764 57.3184 12.8039C58.0606 12.9567 62.8635 14.1792 62.8635 14.6594C62.8635 14.7468 61.6628 15.9693 62.7325 16.3185C63.824 16.6678 63.0381 14.6158 63.1254 14.5284V14.5503Z" fill="white"/>
<path d="M87.3591 50.9965C87.5774 51.193 87.1189 52.481 87.0971 52.8958C87.0534 53.4197 87.0316 54.4676 87.0971 54.926C87.1189 55.1661 87.4682 55.0133 87.5556 55.1006C88.2105 55.7119 87.2499 56.4759 86.9661 57.0872C85.5908 60.2089 84.8922 64.0729 83.4732 67.2383C82.5563 67.6094 82.0323 68.7664 81.7049 69.6615C81.1372 70.2509 79.3908 73.8092 78.8232 73.8311C78.7358 73.8311 77.8189 73.5909 77.6443 73.5254C75.5704 72.674 72.7978 68.8974 71.2915 67.1291C70.2218 65.8848 70.3309 66.2123 69.6541 64.706C68.7372 62.6976 67.8203 63.418 67.0126 62.6321C66.9034 62.5229 66.8816 62.2173 66.7288 62.0427C66.4887 61.7807 65.9429 61.3878 65.8119 61.1695C65.3753 60.3399 65.8556 60.4709 66.3358 60.1434C68.388 58.7026 70.3091 57.1527 72.3394 55.6901C73.3654 54.9478 77.0549 52.0226 77.8626 51.7606C79.4781 51.2367 81.6394 51.2148 83.4513 51.062C83.7133 51.062 84.7175 50.9747 84.9795 50.9529C85.3725 50.9529 87.3154 50.8656 87.4027 50.9529L87.3591 50.9965Z" fill="white"/>
<path d="M38.6765 52.5027C38.1526 51.8478 38.0216 48.2458 38.1089 47.3071C38.9385 38.2039 51.142 33.7068 57.3857 40.5397C60.7695 44.2509 61.4899 47.5254 60.3329 52.4154C60.2674 52.6992 60.3765 53.0703 60.2892 53.3978C60.2019 53.7252 59.547 54.1182 59.3068 54.4456C58.4554 55.6026 57.8005 56.6942 56.6434 57.6329C54.3949 59.4229 52.5392 59.7941 49.7667 59.925C49.461 59.925 49.1772 60.2088 48.7406 60.187C45.6843 59.9469 41.0998 57.4364 39.7244 54.6421C39.4406 54.0745 39.5061 53.0267 39.3096 52.7647C39.1786 52.5682 38.7857 52.59 38.6984 52.4809L38.6765 52.5027ZM47.9547 38.2475L47.3216 38.8806L47.8237 39.3827L48.4568 38.7496L47.9547 38.2475ZM51.8625 42.8974C51.7096 42.7446 49.6357 42.3516 49.2209 42.3298C47.2343 42.177 44.6582 44.1417 43.8505 45.91C43.1955 47.3071 42.9991 49.5775 43.5885 51.0183C44.0688 52.1971 44.7892 51.8697 44.9857 52.0443C45.0512 52.1098 44.8984 52.721 45.2477 53.1795C46.5794 55.0132 49.9195 55.2097 51.8843 54.4456C54.3949 53.4633 56.0103 50.4943 55.7047 47.831C55.6392 47.1761 55.0279 45.3205 54.4385 45.0149C53.7836 44.6875 52.823 44.491 52.1899 43.8361C51.9934 43.6396 52.0153 43.072 51.8406 42.8974H51.8625ZM57.0146 46.674C56.6216 47.067 57.7787 47.7655 57.7787 47.067C57.7787 46.9142 57.1674 46.543 57.0146 46.674ZM57.5167 47.7001C57.0146 47.1761 56.0758 48.5514 56.4906 48.9662C56.5343 49.0099 57.473 49.0099 57.5167 48.9662C57.5604 48.9226 57.5604 47.7437 57.5167 47.6782V47.7001Z" fill="white"/>
<path d="M22.0399 73.6791C22.0399 73.6791 21.1448 73.7446 21.0793 73.6791C21.0139 73.6136 21.0357 73.3735 20.9265 73.2207C17.1061 67.8504 13.3512 62.3273 12.6526 55.4726C12.5434 54.3374 12.8927 53.4642 12.9146 52.6783C12.9146 52.2854 12.5216 52.1544 12.4343 51.8924C11.9758 50.4735 13.0237 51.2594 13.7878 51.303C15.4033 51.4122 20.0096 51.2594 21.1448 51.8488C21.8216 52.1981 22.8258 53.3332 23.4808 53.3332C23.7864 53.3332 24.1357 52.8748 24.354 53.5079C24.4632 53.8353 24.3103 54.1191 24.6378 54.5121C24.9216 54.8614 25.8603 55.298 26.3188 55.6473C26.8646 56.0839 29.266 58.2014 29.6371 58.2232C30.685 58.2669 30.0737 57.8958 31.2963 58.5725C31.6237 58.7472 32.1695 58.7253 32.2786 59.1183C32.366 59.4021 32.2787 59.7732 32.3442 60.0788C32.5843 60.952 33.7195 60.4499 32.3223 62.1527C30.9251 63.8773 29.135 65.3836 27.716 66.999C25.904 69.0293 24.1357 71.0813 22.3456 73.1115C22.1491 73.3298 22.1491 73.6573 22.0617 73.7228L22.0399 73.6791Z" fill="white"/>
<path d="M77.6666 24.2323C77.7976 24.3633 77.5574 26.4153 77.6666 26.5245C78.0159 26.8738 78.78 25.9351 79.0638 26.0224C81.1377 28.9476 83.0589 31.8729 84.4342 35.1911C85.1546 36.9157 85.8532 38.9241 86.2899 40.736C86.7046 42.5479 86.8356 44.3817 87.2504 46.1718C87.4251 46.3464 87.0976 46.6084 86.9666 46.652C86.5518 46.783 84.98 46.7175 84.4342 46.6739C83.9976 46.652 83.6265 46.4119 83.1898 46.3901C82.2074 46.3246 78.8891 46.5429 78.3215 45.9098C77.8849 45.4077 78.1469 44.6655 77.0335 44.6218C76.575 44.6218 76.2476 44.9929 75.8983 44.7746L65.9434 37.1122C66.9258 35.977 68.0173 34.9073 68.9997 33.794C71.1828 31.3053 73.4314 28.8821 75.6363 26.3935C75.8765 26.1097 77.2518 23.7738 77.6666 24.2105V24.2323ZM73.2349 31.4145C72.9511 31.48 72.056 32.0912 72.056 32.2658C72.056 32.637 73.4096 33.2919 73.9553 33.1391C74.5666 32.9862 74.7412 31.0652 73.2349 31.3926V31.4145Z" fill="white"/>
<path d="M12.3694 46.6749C12.1729 46.4784 13.0243 42.7018 12.937 42.0032C14.5525 36.1308 16.9321 29.9965 21.0363 25.3685C21.2546 25.1283 21.8877 24.3861 22.1933 24.4953C22.3898 24.5607 23.3067 26.0889 23.5905 26.4163C25.7954 28.9486 28.2405 31.2627 30.4891 33.795C30.9912 34.3626 31.5152 35.2794 32.0173 35.847C32.4757 36.3491 33.5018 36.6548 33.2835 37.3533C33.1961 37.6808 32.3447 37.8991 32.0173 38.1392C28.5025 40.6279 25.1842 43.4222 21.6257 45.8453C19.6391 46.2819 17.587 46.2383 15.5785 46.4129C15.3166 46.4129 15.0546 46.6312 14.7926 46.653C14.3997 46.6749 12.4567 46.7404 12.3694 46.653V46.6749ZM14.4215 42.3525C14.0285 42.7236 14.7053 44.1862 15.3384 44.3609C15.9497 44.5355 16.8447 43.7714 16.9539 43.182C17.063 42.5926 15.8405 42.0032 15.3166 42.0687C15.2074 42.0687 14.4651 42.3088 14.4433 42.3525H14.4215Z" fill="white"/>
<path d="M35.0737 56.1028C35.0737 56.1028 35.0737 56.6485 34.9427 56.8669C34.6808 57.2816 34.5934 56.9323 34.3751 56.9105C34.135 56.9105 33.5674 56.8887 33.5237 56.8669C33.3927 56.7795 33.5237 55.95 33.9167 55.8408C34.0695 55.7972 35.0082 56.0591 35.0519 56.1028H35.0737Z" fill="white"/>
</svg>

<svg xmlns="http://www.w3.org/2000/svg" width="100" height="100" fill="none"><path fill="#fff" d="M63.366 66.055c.11.131-.174 1.136.11 1.55.13.197.567.284.785.502 1.747 1.55 4.257 4.41 6.331 5.414.699.328 1.812.437 2.358.96.502.503.546 1.53 1.004 2.053.219.262.808.371.895.633.24.764-.218.546-.48.764-4.039 3.275-8.383 6.025-13.448 7.466-2.14.611-5.414 1.375-7.619 1.572-2.467.218-1.484-.087-1.375-1.637.109-1.747-.153-3.646 0-5.37.087-1.31.633-2.686.502-4.061-.175-1.965-.066-2.729 0-4.584.022-.677-.153-4.083 0-4.214.175-.152 1.725-.218 2.117-.305a28 28 0 0 0 3.493-1.092c.48-.196 1.332-.808 1.703-.873.699-.11 1.921 1.68 2.773 1.68.24 0 .808-.545.895-.436zm-21.635-.045c.677.677 3.144.634 4.126 1.114.742.371.35 1.44.415 2.14.327 3.252 1.288 7.924 1.026 10.958-.131 1.463.567 3.319.458 4.541-.022.306-.327.742-.414 1.113-.066.306 0 1.048-.044 1.092-.24.262-2.38-.437-2.925-.262-7.074-1.616-13.514-3.69-18.753-8.798-.393-.37-1.616-.698-.764-1.528.458-.436 1.397-.96 1.899-1.397 3.187-2.75 6.418-5.48 9.693-8.165.655-.523 1.397-1.746 2.292-1.79.393 0 1.2.437 1.375.262.11-.109.11-.917.655-.742.546.153.743 1.288.94 1.484zm-8.95 13.557s.96.306 1.135.262c.873-.24.174-1.768-.743-1.528-.415.11-.502 1.157-.37 1.266zm13.752-48.722c-.328.327-1.616.196-2.096.305-1.2.284-2.794.917-3.995 1.354-.611.218-1.157.83-1.877.61-.306-.086-.961-.96-1.31-1.243-2.795-2.445-6.266-4.847-8.82-7.51-.24-.262-.328-.633-.611-.895-.765-.699-2.053-.59-2.38-1.943-.262-1.026.11-.699.437-.982 6.396-5.152 12.334-7.488 20.543-8.296.262-.022.567-.284.764-.24.567.11.436 1.637.393 2.161-.35 4.825-.546 9.911-1.005 14.801-.043.415.066 1.79 0 1.9zM63.125 14.55c.328-.327 2.402 1.092 2.882 1.332 2.86 1.44 4.716 3.078 7.226 4.497.72.393 1.616.066 1.004 1.31-.196.415-1.266.742-1.528 1.266-.37-.262.371-1.004.131-1.288 0 0-.611-.175-.633-.175-.655-.021-3.296 1.921-2.183 2.62.131.087 1.375.175.764.633-.044.022-.371.022-.633.24-.633.502-.48.895-.742 1.31-.218.306-.764.196-1.157.371-1.201.546-1.856 1.965-3.319 2.554-.414.153-1.113 0-1.266.524-.087.35.066.808-.13 1.135-.132.175-1.092.677-1.398.895-.35.24-1.07 1.267-1.55.874-.044-.022.568-.72-.13-1.026-.569-.24-.503.873-.634 1.004-.24.262-3.187-.96-3.82-1.157-.72-.219-2.424-.371-2.817-.742-.458-.437-.196-1.594-.262-2.293-.436-4.562-1.004-9.19-1.288-13.775 0-.414-.087-2.597 0-2.685.175-.174.874.219 1.157.24 1.572.153 2.948.262 4.52.59.742.153 5.544 1.375 5.544 1.855 0 .088-1.2 1.31-.13 1.66 1.091.349.305-1.703.392-1.79zM87.36 50.997c.217.196-.241 1.484-.263 1.899-.044.524-.065 1.572 0 2.03.022.24.371.087.459.175.654.61-.306 1.375-.59 1.986-1.375 3.122-2.074 6.986-3.493 10.151-.917.371-1.44 1.528-1.768 2.424-.568.589-2.314 4.147-2.882 4.17-.087 0-1.004-.241-1.179-.307-2.074-.851-4.846-4.628-6.353-6.396-1.07-1.244-.96-.917-1.637-2.423-.917-2.008-1.834-1.288-2.641-2.074-.11-.11-.131-.415-.284-.59-.24-.261-.786-.654-.917-.873-.437-.83.044-.698.524-1.026 2.052-1.44 3.973-2.99 6.003-4.453 1.026-.742 4.716-3.667 5.524-3.93 1.615-.523 3.776-.545 5.588-.698.262 0 1.267-.087 1.529-.11.392 0 2.335-.086 2.423 0zm-48.683 1.506c-.524-.655-.655-4.257-.568-5.196.83-9.103 13.033-13.6 19.277-6.767 3.383 3.71 4.104 6.985 2.947 11.875-.066.284.044.655-.044.983-.087.327-.742.72-.982 1.048-.852 1.157-1.507 2.248-2.664 3.187-2.248 1.79-4.104 2.161-6.876 2.292-.306 0-.59.284-1.026.262-3.057-.24-7.641-2.75-9.017-5.545-.283-.568-.218-1.615-.414-1.877-.131-.197-.524-.175-.612-.284zm9.278-14.255-.633.633.502.502.633-.633zm3.907 4.65c-.152-.153-2.226-.546-2.641-.568-1.987-.153-4.563 1.812-5.37 3.58-.655 1.397-.852 3.668-.262 5.108.48 1.18 1.2.852 1.397 1.026.065.066-.088.677.262 1.136 1.331 1.833 4.672 2.03 6.636 1.266 2.51-.983 4.126-3.952 3.82-6.615-.065-.655-.676-2.51-1.266-2.816-.654-.328-1.615-.524-2.248-1.179-.197-.196-.175-.764-.35-.939zm5.153 3.776c-.393.393.764 1.092.764.393 0-.153-.612-.524-.764-.393m.502 1.026c-.502-.524-1.441.851-1.026 1.266.043.044.982.044 1.026 0 .043-.043.043-1.222 0-1.288zM22.04 73.68s-.895.065-.96 0c-.066-.066-.044-.306-.153-.46-3.82-5.37-7.576-10.893-8.274-17.747-.11-1.136.24-2.009.262-2.795 0-.393-.393-.524-.48-.786-.46-1.419.589-.633 1.353-.589 1.615.11 6.222-.044 7.357.546.677.35 1.68 1.484 2.336 1.484.305 0 .655-.458.873.175.11.327-.044.611.284 1.004.284.35 1.222.786 1.68 1.135.547.437 2.948 2.554 3.32 2.576 1.047.044.436-.327 1.658.35.328.174.874.152.983.545.087.284 0 .655.065.96.24.874 1.375.372-.022 2.075-1.397 1.724-3.187 3.23-4.606 4.846-1.812 2.03-3.58 4.082-5.37 6.113-.197.218-.197.545-.284.61zm55.627-49.448c.13.131-.11 2.183 0 2.293.349.349 1.113-.59 1.397-.503 2.074 2.926 3.995 5.85 5.37 9.17.72 1.724 1.42 3.732 1.856 5.544.415 1.812.546 3.646.96 5.436.175.174-.152.436-.283.48-.415.131-1.987.066-2.533.022-.436-.022-.808-.262-1.244-.284-.983-.065-4.3.153-4.868-.48-.437-.502-.175-1.244-1.288-1.288-.459 0-.786.37-1.136.153l-9.955-7.663c.983-1.135 2.074-2.205 3.057-3.318 2.183-2.489 4.431-4.912 6.636-7.4.24-.284 1.616-2.62 2.03-2.183zm-4.432 7.183c-.284.065-1.179.676-1.179.85 0 .372 1.354 1.027 1.9.874.61-.153.785-2.074-.721-1.746zM12.37 46.675c-.197-.197.654-3.973.567-4.672 1.616-5.872 3.995-12.006 8.1-16.634.218-.24.85-.983 1.156-.874.197.066 1.114 1.594 1.397 1.921 2.205 2.533 4.65 4.847 6.9 7.379.501.568 1.025 1.484 1.527 2.052.459.502 1.485.808 1.266 1.506-.087.328-.938.546-1.266.786-3.515 2.489-6.833 5.283-10.391 7.706-1.987.437-4.039.393-6.048.568-.261 0-.523.218-.785.24-.393.022-2.336.087-2.424 0zm2.052-4.322c-.394.37.283 1.833.916 2.008.612.175 1.507-.59 1.616-1.179s-1.114-1.179-1.637-1.113c-.11 0-.852.24-.874.283zm20.652 13.75s0 .545-.131.764c-.262.415-.35.065-.568.044-.24 0-.808-.022-.851-.044-.131-.087 0-.917.393-1.026.152-.044 1.091.218 1.135.262z"/></svg>
